symbols-de/shields/motorway_3x2_z16.svg

<?xml version="1.0" encoding="UTF-8" standalone="no"?>
<svg
   xmlns:dc="http://purl.org/dc/elements/1.1/"
   xmlns:cc="http://creativecommons.org/ns#"
   xmlns:rdf="http://www.w3.org/1999/02/22-rdf-syntax-ns#"
   xmlns:svg="http://www.w3.org/2000/svg"
   xmlns="http://www.w3.org/2000/svg"
   xmlns:sodipodi="http://sodipodi.sourceforge.net/DTD/sodipodi-0.dtd"
   xmlns:inkscape="http://www.inkscape.org/namespaces/inkscape"
   width="100%"
   height="100%"
   viewBox="0 0 29.0 26.0"
   id="svg2"
   version="1.1"
   inkscape:version="0.91 r13725"
   sodipodi:docname="autobahn_3x2_z16.svg">
  <metadata
     id="metadata9">
    <rdf:RDF>
      <cc:Work
         rdf:about="">
        <dc:format>image/svg+xml</dc:format>
        <dc:type
           rdf:resource="http://purl.org/dc/dcmitype/StillImage" />
        <dc:title></dc:title>
      </cc:Work>
    </rdf:RDF>
  </metadata>
  <defs
     id="defs7" />
  <sodipodi:namedview
     pagecolor="#ffffff"
     bordercolor="#666666"
     borderopacity="1"
     objecttolerance="10"
     gridtolerance="10"
     guidetolerance="10"
     inkscape:pageopacity="0"
     inkscape:pageshadow="2"
     inkscape:window-width="1039"
     inkscape:window-height="685"
     id="namedview5"
     showgrid="false"
     inkscape:zoom="9.0769231"
     inkscape:cx="14.5"
     inkscape:cy="13"
     inkscape:window-x="194"
     inkscape:window-y="363"
     inkscape:window-maximized="0"
     inkscape:current-layer="svg2" />
  <path
     style="fill:#365eaf;fill-opacity:1;stroke:#0528a2;stroke-width:1;stroke-miterlimit:4;stroke-dasharray:none;stroke-opacity:1"
     d="m 14.5,0.5 c -0.200716,0 -0.300781,0.0036 -0.300781,0.01274 L 0.952224,2.436144 C 0.651148,2.528374 0.5,2.667788 0.5,2.852244 c 0,6.765172 0,13.530343 0,20.295514 0,0.184456 0.151148,0.323875 0.452224,0.4161 l 13.246995,1.923402 c 0,0.0092 0.100067,0.01274 0.300781,0.01274 0.200717,0 0.300781,-0.0036 0.300781,-0.01274 L 28.047777,23.563858 C 28.348853,23.471628 28.5,23.332213 28.5,23.147758 c 0,-6.765172 0,-13.530342 0,-20.295514 0,-0.184456 -0.151147,-0.323875 -0.452223,-0.4161 L 14.800781,0.512737 c 0,-0.0092 -0.100067,-0.01274 -0.300781,-0.01274 z"
     id="path6"
     inkscape:connector-curvature="0"
     sodipodi:nodetypes="sccccccsccccccs" />
</svg>

<?xml version="1.0" encoding="UTF-8"?>
<svg xmlns="http://www.w3.org/2000/svg" xmlns:xlink="http://www.w3.org/1999/xlink" width="28pt" height="34pt" viewBox="0 0 28 34" version="1.1">
<g id="surface1">
<path style="fill-rule:nonzero;fill:rgb(21.176471%,36.862745%,68.627451%);fill-opacity:1;stroke-width:1;stroke-linecap:butt;stroke-linejoin:miter;stroke:rgb(1.960784%,15.686275%,63.529412%);stroke-opacity:1;stroke-miterlimit:4;" d="M 14.5 0.498851 C 14.297712 0.498851 14.200614 0.504825 14.200614 0.513787 L 0.950753 2.4375 C 0.651367 2.527114 0.501674 2.667509 0.501674 2.852711 C 0.501674 9.618566 0.501674 16.381434 0.501674 23.147289 C 0.501674 23.332491 0.651367 23.472886 0.950753 23.5625 L 14.200614 25.486213 C 14.200614 25.495175 14.297712 25.501149 14.5 25.501149 C 14.702288 25.501149 14.799386 25.495175 14.799386 25.486213 L 28.049247 23.5625 C 28.348633 23.472886 28.498326 23.332491 28.498326 23.147289 C 28.498326 16.381434 28.498326 9.618566 28.498326 2.852711 C 28.498326 2.667509 28.348633 2.527114 28.049247 2.4375 L 14.799386 0.513787 C 14.799386 0.504825 14.702288 0.498851 14.5 0.498851 Z M 14.5 0.498851 " transform="matrix(0.965517,0,0,1.307692,0,0)"/>
</g>
</svg>
